gas-station.svg

<svg fill="currentColor" viewBox="0 0 24 24"><path d="M18 10a1 1 0 0 1-1-1 1 1 0 0 1 1-1 1 1 0 0 1 1 1 1 1 0 0 1-1 1m-6 0H6V5h6m7.77 2.23.01-.01-3.72-3.72L15 4.56l2.11 2.11C16.17 7 15.5 7.93 15.5 9a2.5 2.5 0 0 0 2.5 2.5c.36 0 .69-.08 1-.21v7.21a1 1 0 0 1-1 1 1 1 0 0 1-1-1V14a2 2 0 0 0-2-2h-1V5a2 2 0 0 0-2-2H6c-1.11 0-2 .89-2 2v16h10v-7.5h1.5v5A2.5 2.5 0 0 0 18 21a2.5 2.5 0 0 0 2.5-2.5V9c0-.69-.28-1.32-.73-1.77"/></svg>

<svg  viewBox="0 0 24 24" fill="currentColor"><path  d="M18,10A1,1 0 0,1 17,9A1,1 0 0,1 18,8A1,1 0 0,1 19,9A1,1 0 0,1 18,10M12,10H6V5H12M19.77,7.23L19.78,7.22L16.06,3.5L15,4.56L17.11,6.67C16.17,7 15.5,7.93 15.5,9A2.5,2.5 0 0,0 18,11.5C18.36,11.5 18.69,11.42 19,11.29V18.5A1,1 0 0,1 18,19.5A1,1 0 0,1 17,18.5V14C17,12.89 16.1,12 15,12H14V5C14,3.89 13.1,3 12,3H6C4.89,3 4,3.89 4,5V21H14V13.5H15.5V18.5A2.5,2.5 0 0,0 18,21A2.5,2.5 0 0,0 20.5,18.5V9C20.5,8.31 20.22,7.68 19.77,7.23Z"/></svg>
